coreui/free/cil-touch-app.svg

<svg xmlns="http://www.w3.org/2000/svg" viewBox="0 0 512 512">
  <path fill="var(--ci-primary-color, currentColor)" d="M454.423,278.957,328,243.839v-8.185a116,116,0,1,0-104,0V312H199.582l-18.494-22.6a90.414,90.414,0,0,0-126.43-13.367,20.862,20.862,0,0,0-8.026,33.47L215.084,496H472V302.08A24.067,24.067,0,0,0,454.423,278.957ZM192,132a84,84,0,1,1,136,65.9V132a52,52,0,0,0-104,0v65.9A83.866,83.866,0,0,1,192,132ZM440,464H229.3L79.141,297.75a58.438,58.438,0,0,1,77.181,11.91l28.1,34.34H256V132a20,20,0,0,1,40,0V268.161l144,40Z" class="ci-primary"/>
</svg>

<svg viewBox="0 0 512 512" xmlns="http://www.w3.org/2000/svg"><path d="M454.42 278.957l-126.43-35.12v-8.19 0c57.26-28.72 80.41-98.43 51.69-155.7 -28.72-57.27-98.43-80.42-155.7-51.7 -57.27 28.71-80.42 98.42-51.7 155.69 11.2 22.35 29.34 40.48 51.69 51.69v76.346h-24.42l-18.494-22.6v0c-31.37-38.34-87.74-44.3-126.43-13.37v0c-10.77 4.11-16.15 16.17-12.04 26.93 .92 2.4 2.27 4.61 4 6.53l168.452 186.49h256.91v-193.92h0c-.03-10.78-7.21-20.22-17.58-23.13ZM191.99 132v0c-.04-46.4 37.53-84.04 83.93-84.07 46.39-.04 84.03 37.53 84.06 83.93 .02 25.75-11.78 50.09-32 66.03v-65.9 0c0-28.72-23.29-52-52-52 -28.72 0-52 23.28-52 52v65.9 -.001c-20.21-15.91-32-40.19-32-65.9Zm248 332h-210.7L79.13 297.75h0c24.99-16.33 58.27-11.2 77.18 11.91l28.1 34.34h71.57V132v0c0-11.05 8.95-20 20-20 11.04 0 20 8.95 20 20v136.161l144 40Z"/></svg>
